X: 16
T:How D'Ye Do Sir, Headington
M:6/8
L:1/8
A:Headington
P:A(A2B)4C
K:F
P:A
Q:324
g2c  d2B |G>AB A>GF|g2c  d2B |G>AG F2c||
P:B
Q:276
M:9/8
G>AB A2F2|G>AB A2F2|G>AB A2F2|
Q:324
M:6/8
G>A=B c>dc|G>A=B c>de||
P:C
g2c  d2B |G>AB A>GF|g2c  d2B |G>AG F3 ||
